dist/svgs/unicons/line/laptop.svg

<svg xmlns="http://www.w3.org/2000/svg" viewBox="0 0 24 24"><path d="M21 14h-1V7a3 3 0 00-3-3H7a3 3 0 00-3 3v7H3a1 1 0 00-1 1v2a3 3 0 003 3h14a3 3 0 003-3v-2a1 1 0 00-1-1zM6 7a1 1 0 011-1h10a1 1 0 011 1v7H6zm14 10a1 1 0 01-1 1H5a1 1 0 01-1-1v-1h16z"/></svg>

<svg xmlns="http://www.w3.org/2000/svg" viewBox="0 0 24 24"><path d="M21,14H20V7a3,3,0,0,0-3-3H7A3,3,0,0,0,4,7v7H3a1,1,0,0,0-1,1v2a3,3,0,0,0,3,3H19a3,3,0,0,0,3-3V15A1,1,0,0,0,21,14ZM6,7A1,1,0,0,1,7,6H17a1,1,0,0,1,1,1v7H6ZM20,17a1,1,0,0,1-1,1H5a1,1,0,0,1-1-1V16H20Z"/></svg>
